public/images/Homepage/real-estate.svg

<svg id="Capa_1" enable-background="new 0 0 511.654 511.654" height="512" viewBox="0 0 511.654 511.654" width="512" xmlns="http://www.w3.org/2000/svg"><g><path d="m489.19 37.01h-53.019c-4.142 0-7.5 3.357-7.5 7.5s3.358 7.5 7.5 7.5h53.019c4.116 0 7.464 3.349 7.464 7.464v27.743h-481.654v-27.743c0-4.115 3.349-7.464 7.464-7.464h381.745c4.142 0 7.5-3.357 7.5-7.5s-3.358-7.5-7.5-7.5h-381.745c-12.386 0-22.464 10.077-22.464 22.464v392.707c0 12.387 10.078 22.464 22.464 22.464h466.726c12.387 0 22.464-10.077 22.464-22.464v-392.707c0-12.387-10.077-22.464-22.464-22.464zm-474.19 415.171v-101.772h98.236v109.235h-90.772c-4.115.001-7.464-3.348-7.464-7.463zm474.19 7.464h-360.954v-182.14c0-4.143-3.358-7.5-7.5-7.5s-7.5 3.357-7.5 7.5v57.904h-98.236v-233.192h98.236v143.325c0 4.143 3.358 7.5 7.5 7.5s7.5-3.357 7.5-7.5v-143.325h368.418v349.964c0 4.115-3.348 7.464-7.464 7.464z"/><path d="m44.812 61.77c-4.142 0-7.5 3.357-7.5 7.5s3.358 7.5 7.5 7.5h4.187c4.142 0 7.5-3.357 7.5-7.5s-3.358-7.5-7.5-7.5z"/><path d="m85.561 61.77c-4.142 0-7.5 3.357-7.5 7.5s3.358 7.5 7.5 7.5h4.187c4.142 0 7.5-3.357 7.5-7.5s-3.358-7.5-7.5-7.5z"/><path d="m126.31 61.77c-4.142 0-7.5 3.357-7.5 7.5s3.358 7.5 7.5 7.5h4.187c4.142 0 7.5-3.357 7.5-7.5s-3.358-7.5-7.5-7.5z"/><path d="m408.269 232.507c-.46-4.413-2.611-8.382-6.056-11.176l-26.066-21.143c-3.217-2.609-7.941-2.117-10.549 1.101-2.609 3.217-2.117 7.94 1.1 10.55l26.066 21.143c.688.558.793 1.571.235 2.26l-7.426 9.153c-.346.428-.779.555-1.081.586-.304.031-.751-.004-1.179-.351l-6.004-4.87c-.005-.004-.01-.008-.014-.011l-74.864-60.724c-2.754-2.232-6.695-2.232-9.449 0l-74.867 60.726c-.003.002-.006.005-.009.008l-6.008 4.873c-.427.346-.875.383-1.178.35-.302-.031-.735-.158-1.082-.586l-7.425-9.153c-.347-.428-.382-.877-.35-1.18.031-.302.159-.734.585-1.08l12.392-10.052s.001-.001.001-.001l39.209-31.803c.004-.003.007-.006.011-.009l38.719-31.406c2.737-2.22 6.712-2.221 9.449 0l39.439 31.99c3.216 2.608 7.94 2.116 10.549-1.101s2.117-7.94-1.1-10.55l-39.439-31.99c-8.213-6.66-20.135-6.66-28.348 0l-26.545 21.531v-11.565c2.301-2.523 3.718-5.865 3.718-9.541v-14.363c0-7.823-6.365-14.188-14.188-14.188h-33.276c-7.823 0-14.188 6.365-14.188 14.188v14.363c0 3.676 1.417 7.018 3.718 9.541v55.541l-9.572 7.764c-3.445 2.795-5.596 6.764-6.056 11.176-.46 4.411.826 8.738 3.62 12.184l7.425 9.153c2.794 3.445 6.763 5.596 11.174 6.056.587.062 1.172.092 1.754.092 1.452 0 2.882-.192 4.262-.561v60.778h-4.407c-4.142 0-7.5 3.357-7.5 7.5s3.358 7.5 7.5 7.5h172.77c4.142 0 7.5-3.357 7.5-7.5s-3.358-7.5-7.5-7.5h-3.709v-60.789c1.935.518 3.965.696 6.016.48 4.412-.46 8.38-2.61 11.174-6.056l7.426-9.153c2.797-3.447 4.083-7.774 3.623-12.185zm-194.215-97.573h31.652v12.74h-31.652zm3.718 27.74h24.216v19.084l-24.216 19.642zm98.059 157.534h-36.248v-6.138c0-9.993 8.13-18.124 18.124-18.124s18.124 8.131 18.124 18.124zm15 0v-6.138c0-18.265-14.859-33.124-33.124-33.124s-33.124 14.859-33.124 33.124v6.138h-34.203v-71.092l67.327-54.609 67.327 54.609v71.092z"/><path d="m323.331 237.042h-51.248c-4.142 0-7.5 3.357-7.5 7.5s3.358 7.5 7.5 7.5h51.248c4.142 0 7.5-3.357 7.5-7.5s-3.358-7.5-7.5-7.5z"/><path d="m244.576 359.657h-15.363c-5.082 0-9.216 4.135-9.216 9.217v52.009c0 5.082 4.134 9.217 9.216 9.217h15.363c11.778 0 21.361-9.582 21.361-21.36 0-5.29-1.943-10.126-5.14-13.861 3.196-3.735 5.14-8.572 5.14-13.861 0-11.779-9.583-21.361-21.361-21.361zm-9.579 15h9.58c3.507 0 6.361 2.854 6.361 6.36 0 3.508-2.854 6.361-6.361 6.361h-9.58zm9.579 40.443h-9.58v-12.721h9.58c3.507 0 6.361 2.854 6.361 6.36s-2.854 6.361-6.361 6.361z"/><path d="m316.331 359.657c-4.142 0-7.5 3.357-7.5 7.5v39.973c0 4.395-3.575 7.97-7.97 7.97s-7.97-3.575-7.97-7.97v-39.973c0-4.143-3.358-7.5-7.5-7.5s-7.5 3.357-7.5 7.5v39.973c0 12.666 10.304 22.97 22.97 22.97s22.97-10.304 22.97-22.97v-39.973c0-4.142-3.358-7.5-7.5-7.5z"/><path d="m379.087 361.38c-3.189-2.642-7.917-2.195-10.56.994l-9.693 11.709-9.693-11.709c-2.642-3.19-7.37-3.635-10.56-.994-3.19 2.642-3.636 7.369-.995 10.561l13.748 16.606v34.053c0 4.143 3.358 7.5 7.5 7.5s7.5-3.357 7.5-7.5v-34.053l13.748-16.606c2.641-3.192 2.195-7.92-.995-10.561z"/><path d="m471.146 392.752-18.773-18.772 5.311-5.236c2.6-2.563 3.393-6.406 2.02-9.789s-4.62-5.586-8.272-5.613l-41.738-.296c-.025 0-.05 0-.075 0-5.584 0-10.148 4.522-10.188 10.118l-.296 41.737c-.026 3.652 2.13 6.931 5.494 8.353 3.365 1.422 7.218.683 9.819-1.881l5.882-5.799 18.998 18.997c1.942 1.943 4.523 3.013 7.27 3.013s5.328-1.069 7.269-3.011l17.284-17.283c4.005-4.007 4.005-10.528 0-14.535-.005-.002-.005-.002-.005-.003zm-24.551 17.875-20.928-20.927c-1.464-1.464-3.383-2.196-5.303-2.196-1.902 0-3.805.72-5.266 2.159l-.864.852.159-22.436 22.436.159-.368.362c-1.423 1.403-2.227 3.315-2.234 5.314-.007 1.998.784 3.917 2.197 5.33l20.777 20.776z"/><path d="m85.034 280.946h-44.61c-4.142 0-7.5 3.357-7.5 7.5s3.358 7.5 7.5 7.5h44.61c4.142 0 7.5-3.357 7.5-7.5s-3.358-7.5-7.5-7.5z"/><path d="m85.034 247.327h-44.61c-4.142 0-7.5 3.357-7.5 7.5s3.358 7.5 7.5 7.5h44.61c4.142 0 7.5-3.357 7.5-7.5s-3.358-7.5-7.5-7.5z"/><path d="m85.034 213.708h-44.61c-4.142 0-7.5 3.357-7.5 7.5s3.358 7.5 7.5 7.5h44.61c4.142 0 7.5-3.357 7.5-7.5s-3.358-7.5-7.5-7.5z"/><path d="m85.034 180.089h-44.61c-4.142 0-7.5 3.357-7.5 7.5s3.358 7.5 7.5 7.5h44.61c4.142 0 7.5-3.357 7.5-7.5s-3.358-7.5-7.5-7.5z"/><path d="m85.034 146.469h-44.61c-4.142 0-7.5 3.357-7.5 7.5s3.358 7.5 7.5 7.5h44.61c4.142 0 7.5-3.357 7.5-7.5s-3.358-7.5-7.5-7.5z"/><path d="m62.729 371.395c-18.101 0-32.827 14.727-32.827 32.827s14.726 32.827 32.827 32.827 32.827-14.727 32.827-32.827-14.727-32.827-32.827-32.827zm0 50.654c-9.83 0-17.827-7.997-17.827-17.827s7.997-17.827 17.827-17.827 17.827 7.997 17.827 17.827-7.998 17.827-17.827 17.827z"/></g></svg>

<svg xmlns="http://www.w3.org/2000/svg" width="511.654" height="437.635" viewBox="0 0 511.654 437.635">
  <g id="real-estate" transform="translate(0 -37.01)">
    <path id="Path_5557" data-name="Path 5557" d="M489.19,37.01H436.171a7.5,7.5,0,0,0,0,15H489.19a7.473,7.473,0,0,1,7.464,7.464V87.217H15V59.474a7.473,7.473,0,0,1,7.464-7.464H404.209a7.5,7.5,0,0,0,0-15H22.464A22.49,22.49,0,0,0,0,59.474V452.181a22.49,22.49,0,0,0,22.464,22.464H489.19a22.489,22.489,0,0,0,22.464-22.464V59.474A22.489,22.489,0,0,0,489.19,37.01ZM15,452.181V350.409h98.236V459.644H22.464A7.472,7.472,0,0,1,15,452.181Zm474.19,7.464H128.236V277.505a7.5,7.5,0,0,0-15,0v57.9H15V102.217h98.236V245.542a7.5,7.5,0,0,0,15,0V102.217H496.654V452.181a7.473,7.473,0,0,1-7.464,7.464Z" fill="#07c7a2"/>
    <path id="Path_5558" data-name="Path 5558" d="M44.812,61.77a7.5,7.5,0,0,0,0,15H49a7.5,7.5,0,0,0,0-15Z" fill="#07c7a2"/>
    <path id="Path_5559" data-name="Path 5559" d="M85.561,61.77a7.5,7.5,0,0,0,0,15h4.187a7.5,7.5,0,0,0,0-15Z" fill="#07c7a2"/>
    <path id="Path_5560" data-name="Path 5560" d="M126.31,61.77a7.5,7.5,0,0,0,0,15H130.5a7.5,7.5,0,0,0,0-15Z" fill="#07c7a2"/>
    <path id="Path_5561" data-name="Path 5561" d="M408.269,232.507a16.5,16.5,0,0,0-6.056-11.176l-26.066-21.143a7.5,7.5,0,0,0-9.449,11.651l26.066,21.143a1.609,1.609,0,0,1,.235,2.26l-7.426,9.153a1.606,1.606,0,0,1-2.26.235l-6-4.87-.014-.011-74.864-60.724a7.5,7.5,0,0,0-9.449,0l-74.867,60.726-.009.008-6.008,4.873a1.607,1.607,0,0,1-2.26-.236l-7.425-9.153a1.608,1.608,0,0,1,.235-2.26l12.392-10.052h0l39.209-31.8.011-.009,38.719-31.406a7.534,7.534,0,0,1,9.449,0l39.439,31.99a7.5,7.5,0,0,0,9.449-11.651l-39.439-31.99a22.608,22.608,0,0,0-28.348,0l-26.545,21.531V158.027a14.116,14.116,0,0,0,3.718-9.541V134.123a14.2,14.2,0,0,0-14.188-14.188H213.239a14.2,14.2,0,0,0-14.188,14.188v14.363a14.116,14.116,0,0,0,3.718,9.541v55.541l-9.572,7.764a16.608,16.608,0,0,0-2.436,23.36l7.425,9.153A16.5,16.5,0,0,0,209.36,259.9a16.688,16.688,0,0,0,1.754.092,16.485,16.485,0,0,0,4.262-.561V320.21h-4.407a7.5,7.5,0,0,0,0,15h172.77a7.5,7.5,0,0,0,0-15H380.03V259.421a16.582,16.582,0,0,0,17.19-5.576l7.426-9.153a16.5,16.5,0,0,0,3.623-12.185ZM214.054,134.934h31.652v12.74H214.054Zm3.718,27.74h24.216v19.084L217.772,201.4Zm98.059,157.534H279.583V314.07a18.124,18.124,0,1,1,36.248,0Zm15,0V314.07a33.124,33.124,0,1,0-66.248,0v6.138h-34.2V249.116l67.327-54.609,67.327,54.609v71.092Z" fill="#07c7a2"/>
    <path id="Path_5562" data-name="Path 5562" d="M323.331,237.042H272.083a7.5,7.5,0,0,0,0,15h51.248a7.5,7.5,0,0,0,0-15Z" fill="#07c7a2"/>
    <path id="Path_5563" data-name="Path 5563" d="M244.576,359.657H229.213A9.227,9.227,0,0,0,220,368.874v52.009a9.227,9.227,0,0,0,9.216,9.217h15.363A21.333,21.333,0,0,0,260.8,394.879a21.334,21.334,0,0,0-16.221-35.222Zm-9.579,15h9.58a6.36,6.36,0,1,1,0,12.721H235Zm9.579,40.443H235V402.379h9.58a6.36,6.36,0,1,1,0,12.721Z" fill="#07c7a2"/>
    <path id="Path_5564" data-name="Path 5564" d="M316.331,359.657a7.5,7.5,0,0,0-7.5,7.5V407.13a7.97,7.97,0,0,1-15.94,0V367.157a7.5,7.5,0,0,0-15,0V407.13a22.97,22.97,0,0,0,45.94,0V367.157A7.5,7.5,0,0,0,316.331,359.657Z" fill="#07c7a2"/>
    <path id="Path_5565" data-name="Path 5565" d="M379.087,361.38a7.5,7.5,0,0,0-10.56.994l-9.693,11.709-9.693-11.709a7.5,7.5,0,0,0-11.555,9.567l13.748,16.606V422.6a7.5,7.5,0,0,0,15,0V388.547l13.748-16.606a7.5,7.5,0,0,0-.995-10.561Z" fill="#07c7a2"/>
    <path id="Path_5566" data-name="Path 5566" d="M471.146,392.752,452.373,373.98l5.311-5.236a9,9,0,0,0-6.252-15.4l-41.738-.3h-.075a10.2,10.2,0,0,0-10.188,10.118l-.3,41.737a9,9,0,0,0,15.313,6.472l5.882-5.8,19,19a10.279,10.279,0,0,0,14.539,0l17.284-17.283a10.294,10.294,0,0,0,0-14.535l-.005,0ZM446.6,410.627,425.667,389.7a7.5,7.5,0,0,0-10.569-.037l-.864.852.159-22.436,22.436.159-.368.362a7.5,7.5,0,0,0-.037,10.644L457.2,400.02Z" fill="#07c7a2"/>
    <path id="Path_5567" data-name="Path 5567" d="M85.034,280.946H40.424a7.5,7.5,0,0,0,0,15h44.61a7.5,7.5,0,0,0,0-15Z" fill="#07c7a2"/>
    <path id="Path_5568" data-name="Path 5568" d="M85.034,247.327H40.424a7.5,7.5,0,0,0,0,15h44.61a7.5,7.5,0,1,0,0-15Z" fill="#07c7a2"/>
    <path id="Path_5569" data-name="Path 5569" d="M85.034,213.708H40.424a7.5,7.5,0,0,0,0,15h44.61a7.5,7.5,0,1,0,0-15Z" fill="#07c7a2"/>
    <path id="Path_5570" data-name="Path 5570" d="M85.034,180.089H40.424a7.5,7.5,0,0,0,0,15h44.61a7.5,7.5,0,0,0,0-15Z" fill="#07c7a2"/>
    <path id="Path_5571" data-name="Path 5571" d="M85.034,146.469H40.424a7.5,7.5,0,0,0,0,15h44.61a7.5,7.5,0,0,0,0-15Z" fill="#07c7a2"/>
    <path id="Path_5572" data-name="Path 5572" d="M62.729,371.395a32.827,32.827,0,1,0,32.827,32.827A32.865,32.865,0,0,0,62.729,371.395Zm0,50.654a17.827,17.827,0,1,1,17.827-17.827A17.847,17.847,0,0,1,62.729,422.049Z" fill="#07c7a2"/>
  </g>
</svg>
